packages/foundations/assets/icons/functional/images/transportation/ship_inverted.svg

<svg xmlns="http://www.w3.org/2000/svg" width="32" height="32" fill="none"><path fill="#1A1C1F" fill-rule="evenodd" d="M2.769 4.691a.81.81 0 0 0-.526.45c-.106.219-.11.312-.11 3.116v2.89h8.757c8.747 0 8.757 0 8.984.11.304.147.446.384.446.743 0 .361-.153.618-.448.752-.21.095-.554.099-8.979.1l-8.76.001v4.882c0 5.22-.006 5.086.256 5.375.275.305.781.339 1.475.1.609-.21 1.128-.57 1.804-1.252l.575-.58.545.553c1.253 1.271 2.381 1.668 3.593 1.266.632-.21 1.439-.802 2.018-1.48l.311-.365.565.572c1.878 1.9 3.515 1.901 5.392.003l.56-.567.453.474c1.037 1.085 2.047 1.594 2.99 1.506 1.126-.104 2.113-.814 3.313-2.38 1.369-1.788 2.246-3.667 2.651-5.68.145-.72.238-1.638.195-1.925a.85.85 0 0 0-.59-.655c-.142-.04-1.097-.06-2.891-.06h-2.679l-.031-.12-.414-1.64-.384-1.52-6.65-.027-6.65-.026-.17-.16c-.437-.411-.401-1.061.075-1.355l.181-.112h6.38c5.696 0 6.381-.009 6.381-.082 0-.206-.618-2.468-.711-2.604a.9.9 0 0 0-.324-.252c-.21-.096-.542-.1-8.832-.096-4.737.002-8.675.022-8.751.045m4.058 10.976c.167.088.345.239.445.378.147.203.17.282.185.64.015.349-.001.443-.11.648-.238.446-.821.746-1.278.658-.61-.116-1.056-.642-1.056-1.244 0-.935.98-1.519 1.814-1.08m4.895-.064c.918.383 1.027 1.683.183 2.19-.332.199-.587.248-.914.176a1.19 1.19 0 0 1-.803-.596c-.353-.616-.14-1.386.471-1.704.333-.173.744-.199 1.063-.066m5.054.018c.267.121.573.469.655.745.143.475.045.876-.301 1.233-1.092 1.125-2.803-.38-1.851-1.629.314-.412 1.005-.573 1.497-.349m5.153.088c.126.089.301.278.39.422.137.222.161.312.159.611-.007 1.377-1.827 1.739-2.371.473-.262-.609.037-1.338.666-1.624.101-.045.303-.067.544-.057.326.012.417.038.612.175M5.893 23.743c-.058.033-.358.303-.666.601-.865.837-1.529 1.24-2.132 1.295-.423.038-.692.196-.842.493-.151.3-.151.459.003.75a.95.95 0 0 0 .811.478c.323 0 1.008-.187 1.45-.397.458-.217.896-.508 1.375-.914l.352-.299.245.205c1.092.914 1.916 1.316 2.843 1.388.905.07 2.006-.395 3.065-1.293l.351-.298.413.341c.736.609 1.232.895 1.934 1.115a3.3 3.3 0 0 0 1.892-.025c.546-.179 1.181-.548 1.787-1.037l.479-.387.48.387c.605.489 1.24.857 1.787 1.038.349.115.528.141.987.142.492.002.616-.018 1.03-.164.547-.192 1.181-.56 1.684-.975.195-.162.397-.327.449-.369.085-.067.116-.055.292.113.653.621 1.565 1.142 2.311 1.321.583.14.83.136 1.116-.015.252-.133.478-.476.478-.727 0-.411-.443-.854-.857-.856-.566-.002-1.38-.478-2.231-1.304-.311-.302-.618-.576-.682-.609-.175-.091-.612-.075-.765.028-.073.049-.408.356-.745.683-.824.797-1.523 1.201-2.078 1.201-.558 0-1.389-.48-2.162-1.248-.703-.699-.742-.725-1.091-.725-.363.001-.429.043-1.047.668-.764.774-1.472 1.22-2.04 1.287-.639.076-1.461-.373-2.413-1.319-.322-.32-.646-.597-.72-.615a1.5 1.5 0 0 0-.398-.009c-.251.024-.291.052-.864.607-.688.667-1.268 1.077-1.752 1.241-.42.142-.606.142-1.024.002-.524-.176-.925-.452-1.585-1.09-.337-.327-.672-.634-.745-.683-.152-.102-.611-.118-.775-.026"/></svg>

<svg width="32" height="32" viewBox="0 0 32 32" fill="none" xmlns="http://www.w3.org/2000/svg"><path d="M2.769 4.691 C 2.524 4.765,2.354 4.910,2.243 5.141 C 2.137 5.360,2.133 5.453,2.133 8.257 L 2.133 11.147 10.890 11.147 C 19.637 11.147,19.647 11.147,19.874 11.257 C 20.178 11.404,20.320 11.641,20.320 12.000 C 20.320 12.361,20.167 12.618,19.872 12.752 C 19.662 12.847,19.318 12.851,10.893 12.852 L 2.133 12.853 2.133 17.735 C 2.133 22.955,2.127 22.821,2.389 23.110 C 2.664 23.415,3.170 23.449,3.864 23.210 C 4.473 23.000,4.992 22.640,5.668 21.958 L 6.243 21.378 6.788 21.931 C 8.041 23.202,9.169 23.599,10.381 23.197 C 11.013 22.987,11.820 22.395,12.399 21.717 L 12.710 21.352 13.275 21.924 C 15.153 23.824,16.790 23.825,18.667 21.927 L 19.227 21.360 19.680 21.834 C 20.717 22.919,21.727 23.428,22.670 23.340 C 23.796 23.236,24.783 22.526,25.983 20.960 C 27.352 19.172,28.229 17.293,28.634 15.280 C 28.779 14.560,28.872 13.642,28.829 13.355 C 28.784 13.060,28.534 12.781,28.239 12.700 C 28.097 12.660,27.142 12.640,25.348 12.640 L 22.669 12.640 22.638 12.520 C 22.622 12.454,22.435 11.716,22.224 10.880 L 21.840 9.360 15.190 9.333 L 8.540 9.307 8.370 9.147 C 7.933 8.736,7.969 8.086,8.445 7.792 L 8.626 7.680 15.006 7.680 C 20.702 7.680,21.387 7.671,21.387 7.598 C 21.387 7.392,20.769 5.130,20.676 4.994 C 20.618 4.910,20.472 4.796,20.352 4.742 C 20.142 4.646,19.810 4.642,11.520 4.646 C 6.783 4.648,2.845 4.668,2.769 4.691 M6.827 15.667 C 6.994 15.755,7.172 15.906,7.272 16.045 C 7.419 16.248,7.442 16.327,7.457 16.685 C 7.472 17.034,7.456 17.128,7.347 17.333 C 7.109 17.779,6.526 18.079,6.069 17.991 C 5.459 17.875,5.013 17.349,5.013 16.747 C 5.013 15.812,5.993 15.228,6.827 15.667 M11.722 15.603 C 12.640 15.986,12.749 17.286,11.905 17.793 C 11.573 17.992,11.318 18.041,10.991 17.969 C 10.638 17.891,10.372 17.693,10.188 17.373 C 9.835 16.757,10.048 15.987,10.659 15.669 C 10.992 15.496,11.403 15.470,11.722 15.603 M16.776 15.621 C 17.043 15.742,17.349 16.090,17.431 16.366 C 17.574 16.841,17.476 17.242,17.130 17.599 C 16.038 18.724,14.327 17.219,15.279 15.970 C 15.593 15.558,16.284 15.397,16.776 15.621 M21.929 15.709 C 22.055 15.798,22.230 15.987,22.319 16.131 C 22.456 16.353,22.480 16.443,22.478 16.742 C 22.471 18.119,20.651 18.481,20.107 17.215 C 19.845 16.606,20.144 15.877,20.773 15.591 C 20.874 15.546,21.076 15.524,21.317 15.534 C 21.643 15.546,21.734 15.572,21.929 15.709 M5.893 23.743 C 5.835 23.776,5.535 24.046,5.227 24.344 C 4.362 25.181,3.698 25.584,3.095 25.639 C 2.672 25.677,2.403 25.835,2.253 26.132 C 2.102 26.432,2.102 26.591,2.256 26.882 C 2.405 27.164,2.737 27.360,3.067 27.360 C 3.390 27.360,4.075 27.173,4.517 26.963 C 4.975 26.746,5.413 26.455,5.892 26.049 L 6.244 25.750 6.489 25.955 C 7.581 26.869,8.405 27.271,9.332 27.343 C 10.237 27.413,11.338 26.948,12.397 26.050 L 12.748 25.752 13.161 26.093 C 13.897 26.702,14.393 26.988,15.095 27.208 C 15.665 27.386,16.397 27.377,16.987 27.183 C 17.533 27.004,18.168 26.635,18.774 26.146 L 19.253 25.759 19.733 26.146 C 20.338 26.635,20.973 27.003,21.520 27.184 C 21.869 27.299,22.048 27.325,22.507 27.326 C 22.999 27.328,23.123 27.308,23.537 27.162 C 24.084 26.970,24.718 26.602,25.221 26.187 C 25.416 26.025,25.618 25.860,25.670 25.818 C 25.755 25.751,25.786 25.763,25.962 25.931 C 26.615 26.552,27.527 27.073,28.273 27.252 C 28.856 27.392,29.103 27.388,29.389 27.237 C 29.641 27.104,29.867 26.761,29.867 26.510 C 29.867 26.099,29.424 25.656,29.010 25.654 C 28.444 25.652,27.630 25.176,26.779 24.350 C 26.468 24.048,26.161 23.774,26.097 23.741 C 25.922 23.650,25.485 23.666,25.332 23.769 C 25.259 23.818,24.924 24.125,24.587 24.452 C 23.763 25.249,23.064 25.653,22.509 25.653 C 21.951 25.653,21.120 25.173,20.347 24.405 C 19.644 23.706,19.605 23.680,19.256 23.680 C 18.893 23.681,18.827 23.723,18.209 24.348 C 17.445 25.122,16.737 25.568,16.169 25.635 C 15.530 25.711,14.708 25.262,13.756 24.316 C 13.434 23.996,13.110 23.719,13.036 23.701 C 12.962 23.682,12.783 23.678,12.638 23.692 C 12.387 23.716,12.347 23.744,11.774 24.299 C 11.086 24.966,10.506 25.376,10.022 25.540 C 9.602 25.682,9.416 25.682,8.998 25.542 C 8.474 25.366,8.073 25.090,7.413 24.452 C 7.076 24.125,6.741 23.818,6.668 23.769 C 6.516 23.667,6.057 23.651,5.893 23.743 " fill="#1A1C1F" stroke="none" fill-rule="evenodd"></path></svg>
